X: 18
T:Glorishears (Bampton)
M:2/2
L:1/8
O:England; Oxfordshire; Bampton.
B:Lionel Bacon, A Handbook of Morris Dances
Z:http://www.themorrisring.org/music/handbook-morris-dances
P:A(AB2)4
K:AMix
P:A
|:DEFG A2A2|B2c2 d2cd|e2(3ABc d2c2|B4 A4 :|
P:B
  d4 c3 d|B2e2 A4|d2cB A2GF|G2B2 E2FE|
  DEFG A2A2|B2c2 d2cd|e2(3ABc d2c2|B4 A4  ||

